!!!!SEGMENT: pl-wtm--r-1539--001-001_stefani-jozef--msza-no-1-kyrie.krn
!!!cenid: 18xx:1761
!!!COM: Stefani, Józef
!!!COM-rismID: pe30024097
!!!CDT: 1800/04/16-1876/03/19
!!!CNT: Polish
!!!OPR: Msza No 1
!!!OTL: Kyrie
!!!OMV: 001
!!!PDT:
!!!AGN: Sacred; Mass
!!!SMS-siglum: PL-Wtm
!!!SMS-shelfmark: R 1539
!!!SMS-shelfwork: 001-001 M
!!!SMS-variant:
!!!SMS-altvar:
!!!NIFC-rismSourceID: 1001120484
!!!NIFC-rismChildID: 1001120484
!!!NIFC-islandoraID: pl-wtm:26320
!!!URL-pdf-islandora: https://repozytorium.nifc.pl/islandora/object/pl-wtm%3A26320/datastream/PDF/view
!!!URL-scan: https://polish.musicsources.pl/pl/lokalizacje/galeria/rekopisy/6340 @EN{Scan on Polish Music Sources Website} @PL{Skany w portalu Dziedzictwo Muzyki Polskiej w otwartym dostępie}
!!!IIIF:
!!!ONB-nifc: UWAGA: części Mszy: 1. Kyrie, 2. Gloria, 3. Graduale, 4. Credo, 5. Offertorium, 6. Sanctus, 7. Benedictus, 8. Agnus Dei. Uwaga: niektóre części razem z „przygrywkami”
!!!AIN: 1 alto 1 empty 1 organ 1 soprn
!!!key:
**kern	**kern	**kern	**text	**text	**text	**kern	**kern	**dynam
*part4	*part4	*part3	*part3	*part3	*part3	*part2	*part1	*part1
*staff5	*staff4	*staff3	*staff3	*staff3	*staff3	*staff2	*staff1	*
*Iorgan	*Iempty	*Iempty	*	*	*	*Ialto	*Isoprn	*
*I"Organo	*	*I"Baſso	*	*	*	*I"Alto	*I"Soprano	*
*I'Org.	*	*I'B.	*	*	*	*I'A.	*I'S	*
*clefF4	*clefG2	*clefF4	*	*	*	*clefG2	*clefG2	*
*k[b-]	*k[b-]	*k[b-]	*	*	*	*k[b-]	*k[b-]	*
*F:	*F:	*F:	*	*	*	*F:	*F:	*
*M3/4	*M3/4	*M3/4	*	*	*	*M3/4	*M3/4	*
*>[A,A1,A,A2]	*	*	*	*	*	*	*	*
!	!	!	!	!	!	!	!LO:TX:rj:a:t=Andantino	!
.	8qqc/L	.	.	.	.	.	.	.
.	8qqd/	.	.	.	.	.	.	.
.	8qqe/	.	.	.	.	.	.	.
.	8qqf/	.	.	.	.	.	.	.
.	8qqg/J	.	.	.	.	.	.	.
=||:	==||:	==||:	=	=	=	==||:	==||:	=
*>A	*	*	*	*	*	*	*	*
!	!	!	!	!	!	!	!	!LO:DY:a
4F/ 4FF/	4a/ 4f/ 4c/	4F\	1.) Zod-	2.) Ze-	3.) Spraw	4f/	4a/	mf
=1	=1	=1	=1	=1	=1	=1	=1	=1
*	*^	*	*	*	*	*	*	*
*	*	*2\right	*2\right	*	*	*	*	*2\right	*
2F/ 2FF/	2cc/ 2a/	[2.c\	2F\	-gło-	-bra-	Bo-	2a/	2cc\	.
4AA/	4a/ 4f/	.	4A\	-sem	-ni	-że	4f/	4a/	.
=2	=2	=2	=2	=2	=2	=2	=2	=2	=2
*	*	*^	*	*	*	*	*	*	*
4.C/	2g/	2.c\]	4f\	(4.c\	wdzię-	dziś,	byś-	(4f/	2g/	.
.	.	.	4e\	.	.	.	.	4e/)	.	.
8BB-/	.	.	.	8B-\)	.	.	.	.	.	.
4AA/	4a/ 4f/	.	4ryy	4A\	-cznych	po-	-[[ś]]my	4f/	4a/	.
=3	=3	=3	=3	=3	=3	=3	=3	=3	=3	=3
4G/ 4GG/	2b-/	4.d\	2.g/	(4G\	pie-	-spo-	zgo-	(>4.d/	(2b-\	.
4F/ 4FF/	.	.	.	4F\	.	.	.	.	.	.
.	.	8d-X\	.	.	.	.	.	8d-X/)	.	.
4E/ 4EE/	4cc/	4c\	.	4E\)	.	.	.	4c/	4cc\)	.
*	*v	*v	*v	*	*	*	*	*	*	*
=4	=4	=4	=4	=4	=4	=4	=4	=4
2F/ 2FF/	2a/ 2f/ 2c/	2F\	-ni	-łu	-dni	2c/	2a/	.
4F/ 4FF/	4a/ 4f/ 4c/	4F\	Ku	skła-	Jak	4f/	4a/	.
!!LO:LB:g=original
=5	=5	=5	=5	=5	=5	=5	=5	=5
*	*^	*	*	*	*	*	*	*
*2\right	*	*	*	*	*	*	*	*	*
2B-\ 2BB-\	2g/ 2e/	2.c\	2B-\	To-	-da-	bra-	2e/	2g/	.
4A\ 4AA\	4f/	.	4A\	-bie	-my	-cia	4f/	4f/	.
=6	=6	=6	=6	=6	=6	=6	=6	=6	=6
4G/ 4GG/	2b-/ 2g/	4d\	(4G\	się	Ci	wie-	2g/	2b-/	.
4E/ 4EE/	.	2c\	4E\)	.	.	.	.	.	.
4F/ 4FF/	4a/ 4f/	.	4F\	wzno-	o-	-cznie	4f/	4a/	.
*	*v	*v	*	*	*	*	*	*	*
=7	=7	=7	=7	=7	=7	=7	=7	=7
*^	*	*	*	*	*	*	*	*
2C/	2.CC\	2g/ 2e/	2.C/	-sie-	-fia-	ży-	2e/	2g/	.
.	.	8qb-/ 8qg/	.	.	.	.	(8qg/	(8qb-/	.
4c\	.	4a/ 4f/	.	.	.	.	4f/)	4a/)	.
=8	=8	=8	=8	=8	=8	=8	=8	=8	=8
2C/	2CC\	2g/ 2e/	2C/	-my	-ry	-li	2e/	2g/	.
4F/ 4FF/	4r	4a/ 4f/	4F\	Przez	Z je-	O-	4f/	4a/	.
*v	*v	*	*	*	*	*	*	*	*
=9	=9	=9	=9	=9	=9	=9	=9	=9
*	*^	*	*	*	*	*	*	*
2F/ 2FF/	2cc/ 2a/	2c\	2F\	Cie-	-dne-	-fia-	2a/	2cc\	.
4AA/	4a/ 4f/ 4c/	4ryy	4A\	-bie	-go	-ry	4f/	4a/	.
!!linebreak:original
=10	=10	=10	=10	=10	=10	=10	=10	=10	=10
*	*	*^	*	*	*	*	*	*	*
4.C/	2g/	2.c\	4f/	(4.c\	wy-	Oj-	Two-	(4f/	2g/	.
.	.	.	4e/	.	.	.	.	4e/)	.	.
8BB-/	.	.	.	8B-\)	.	.	.	.	.	.
4AA/	4a/	.	4f/	4A\	-ba-	-ca	-iej	4f/	4a/	.
=11	=11	=11	=11	=11	=11	=11	=11	=11	=11	=11
!	!	!	!	!	!	!	!	!	!	!LO:HP:a
4G/ 4GG/	2b-/	4.d\	2.g/	(4G\	-wie-	sto-	go-	(>4.d/	(2b-\	<
4F/ 4FF/	.	.	.	4F\	.	.	.	.	.	.
.	.	8d-X\	.	.	.	.	.	8d-X/	.	.
!	!	!	!	!	!	!	!	!	!	!LO:HP:a
4E/ 4EE/	4cc/	4c\	.	4E\)	.	.	.	4c/)	4cc\)	[ > ]]
*	*v	*v	*v	*	*	*	*	*	*	*
=12	=12	=12	=12	=12	=12	=12	=12	=12
!	!	!	!	!	!	!	!	!LO:DY:a
2F/ 2FF/	2a/ 2f/ 2c/	2F\	-ni	-łu	-dni	2c/	2a/	f
4E-X/ 4EE-X/	4a/ 4f/ 4c/	4E-X\	Twój	Je-	Na-	4f/	4a/	.
!!LO:PB:g=original
=13	=13	=13	=13	=13	=13	=13	=13	=13
2D/ 2DD/	2b-/ 2f/ 2d/	2D/	Chry-	-dna-	-u-	2f/	2b-\	.
4BB-/ 4BBB-/	4dd/ 4b-/ 4f/	4BB-/	-ste	-kie	-ki	4f/	4dd\	.
=14	=14	=14	=14	=14	=14	=14	=14	=14
*^	*	*	*	*	*	*	*	*
*	*^	*	*	*	*	*	*	*	*
4r	2.C\	4DD\	(8cc\L 8a\ 8f\	2C/	zgon	bie-	Twe	2a/	2cc\	.
.	.	.	8ccc\ 8aa\	.	.	.	.	.	.	.
2A/ 2F/	.	4rAAA	8aa\ 8ff\	.	.	.	.	.	.	.
.	.	.	8ff\ 8cc\	.	.	.	.	.	.	.
.	.	4rAAA	8cc\ 8a\	4C/	swię-	-rzem	peł-	4f/	4a/	.
.	.	.	8a\J 8f\)	.	.	.	.	.	.	.
*v	*v	*v	*	*	*	*	*	*	*	*
=15	=15	=15	=15	=15	=15	=15	=15	=15
*	*^	*	*	*	*	*	*	*
2.c\ 2.G\ 2.C\	2g/	4f\	2.C/	-cie-	da-	-ni-	(4f/	(2g/	.
.	.	8e\L	.	.	.	.	8e/L	.	.
.	.	8d\J	.	.	.	.	8d/J)	.	.
.	4cc/	4e\	.	.	.	.	4e/	4cc\)	.
*	*v	*v	*	*	*	*	*	*	*
=16	=16	=16	=16	=16	=16	=16	=16	=16
*^	*	*	*	*	*	*	*	*
2A\ 2F\ 2D\	2DD\	2a/ 2f/ 2d/	2D\	-my	-ry	-li	2f/	2a/	.
4A\ 4F\ 4E-X\	4EE-X\	4a/ 4f/ 4c/	4E-X\	Twój	Je-	Na-	4f/	4a/	.
=17	=17	=17	=17	=17	=17	=17	=17	=17	=17
2B-\ 2F\ 2D\	2DD\	2b-/ 2f/ 2d/	2D\	Chry-	-dna-	-u-	2f/	2b-\	.
4B-\ 4F\ 4BB-\	4BBB-\	4dd/ 4b-/ 4f/	4BB-/	-ste	-kie	-ki	4f/	4dd\	.
=18	=18	=18	=18	=18	=18	=18	=18	=18	=18
2.A\ 2.F\ 2.D\	4CC\	8cc\L 8a\	2C/	zgon	bie-	Twe	2a/	2cc\	.
.	.	8ffsS\	.	.	.	.	.	.	.
.	4ryy	8aa\	.	.	.	.	.	.	.
.	.	8ff\ 8cc\	.	.	.	.	.	.	.
.	4ryy	8cc\ 8a\	4C/	swię-	-rzem	peł-	4f/	4a/	.
.	.	8a\J 8f\	.	.	.	.	.	.	.
*v	*v	*	*	*	*	*	*	*	*
=19	=19	=19	=19	=19	=19	=19	=19	=19
*	*^	*	*	*	*	*	*	*
2.c\ 2.G\ 2.C\	2g/	4f\	2.C/	-cie-	da-	-ni-	(4f/	(2g/	.
.	.	8e\L	.	.	.	.	8e/L	.	.
.	.	8d\J	.	.	.	.	8d/J	.	.
.	4cc/	4e\	.	.	.	.	4e/)	4cc\)	.
*	*v	*v	*	*	*	*	*	*	*
!!LO:LB:g=original
=20	=20	=20	=20	=20	=20	=20	=20	=20
!LO:TX:t=1. 2.	!	!	!	!	!	!	!	!
*>A1	*	*	*	*	*	*	*	*
*^	*	*	*	*	*	*	*	*
2F\	4r	2f/	2F\	-my	-ry	-li.	2f/	2f/	.
.	4r	.	.	.	.	.	.	.	.
4F\ 4D\	4DD\	4f/ 4Bn/	4r	.	.	.	4r	4r	.
=21	=21	=21	=21	=21	=21	=21	=21	=21	=21
4E/ 4C/	4CC\	8e/L 8c/	4r	.	.	.	4r	4r	.
.	.	8cc/ 8e/ 8c/	.	.	.	.	.	.	.
4r	4r	8b-X/ 8f/ 8d/	4r	.	.	.	4r	4r	.
.	.	8g/J 8e/	.	.	.	.	.	.	.
*v	*v	*	*	*	*	*	*	*	*
=22:|!	=22:|!	=22:|!	=22:|!	=22:|!	=22:|!	=22:|!	=22:|!	=22:|!
!LO:TX:t=3	!	!	!	!	!	!	!	!
*>A2	*	*	*	*	*	*	*	*
4F\	4f/ 4F/	2.ryy	.	.	.	2.ryy	2.ryy	.
4F\	2f/ 2c/ 2A/ 2F/	.	.	.	.	.	.	.
4C\	.	.	.	.	.	.	.	.
=23	=23	=23	=23	=23	=23	=23	=23	=23
4AA\	2.f/ 2.c/ 2.A/ 2.F/	2.ryy	.	.	.	2.ryy	2.ryy	.
4C\	.	.	.	.	.	.	.	.
4AA\	.	.	.	.	.	.	.	.
=24	=24	=24	=24	=24	=24	=24	=24	=24
2.FF/	2.f/ 2.c/ 2.A/ 2.F/	2.ryy	.	.	.	2.ryy	2.ryy	.
==	==	==	==	==	==	==	==	==
*-	*-	*-	*-	*-	*-	*-	*-	*-
!!!system-decoration: [(s1,s2,s3)]{(s4,s5)}
!!!RDF**kern: > = above
!!!RDF**kern: < = below
!!!RDF**dynam: p =
!!!RDF**dynam: f =
!!!EED: Leszek Kubiak
!!!EEV: 2021-04-22
!!!ENC: Berenika Jozajtis
!!!END: 2021-04-06
!!!YEC: Copyright 2022 Narodowy Instytut Fryderyka Chopina (https://polishscores.org)
!!!YEM: License CC-BY-4.0 (https://creativecommons.org/licenses/by/4.0)
